X:505
%%etbk:tnset id:18,pos:1,rep:3x,ant:
%%etbk:wsite http://thesession.org/tunes/1939
%%etbk:video src:ytube,cde:BjLcfnY8-gY,desc:first tune
%%etbk:color #eee6ff
%%etbk:pldat 2016-07-12T16:22,2016-05-24T17:14,2016-05-12T19:27,2016-04-23T16:50,2016-04-12T16:35,2016-04-02T15:14,2016-03-31T17:11,2016-03-22T16:39,2016-03-20T10:27,2016-03-17T17:48,2016-03-14T19:15,2016-02-10T17:38,2016-01-27T18:03,2016-01-16T16:14,2016-01-12T18:07,2016-01-03T14:53,2016-01-02T14:16,2016-01-01T16:02,2015-12-31T14:53,2015-12-24T16:11,2015-07-11T16:29,2015-04-06T16:31,2015-03-26T18:34,2015-03-25T19:04,2014-12-08T18:48,2014-05-14T17:27,2014-05-06T17:32,2014-04-06T16:39,2014-04-02T17:51,2014-02-08T15:34,2014-02-05T17:11,2013-12-11T20:03,2013-10-07T18:26,2013-10-04T16:17,2013-10-02T17:52,2013-10-01T18:43,2013-09-26T16:16,2013-09-11T20:03
T:Boys on the Hilltop, The
Z: Piano Box Version by Martin Fleischmann
H: Created 2013-09-09 /  Last Modified 2016-01-01
R:reel
M:4/4
K:Ador
"am"!1!A2A!3!c"em"!2!B2!1!A!2!G|!1!E!2!GGG!2!G2AG|"am"!1!E!3!A!1!A!3!c "em"!2!B!1!GB!3!d|!4!e!5!g!3!dg !2!B!1!G!3!d!2!B|
"am"!1!A2A!3!c "em"!2!B2!1!A!2!G|!1!E!2!GGG !2!G2!3!A!4!B|"am"!3!c2cA "em"!2!B2Bc|!4!d!2!B!1!G!2!A "am"!3!B!2!A!1!A2||
"am"!1!A2 !2!B!3!d !4!e!5!g!3!d!2!B|"G"!1!G!1!AB!3!^c !1!defg|"am"!5!aged !2!eg!1!d!2!B|"em"!1!GBd!2!B "am"B!1!AA2|
"am"!5!aged !2!eg!1!d!2!B|"G"!1!G!1!AB!3!^c !1!defg|"am"!5!afge fdef|"em"!4!g2af !4!ge!1!d!2!B||


